X:1
T:Title
%%score { 1 | 2 }
L:1/8
M:4/4
K:Ab
V:1 treble nm="Grand Piano"
V:2 bass 
V:1
 z4 z2[Q:1/4=100] [A,C][B,D] | [CE]2 [CA]2 [Ec]4 | BAGF [CE]2 [CA][EA] | B3 B G2 E2 |[M:3/4] c6 | %5
[M:1/4] C[B,D] |[M:4/4] [CE]2 [CA]2 [Ec]4 | BAGF [CE]2 [EA][Ec] | [EB]3 [EB] [=Dc]2 [A=d]2 | %9
[M:3/4] [Ge]6 |[M:1/4] [Ge]>[Ed] |[M:4/4] [Ec][Ec][Ec][Ec] [Ec]2 [EA][Ec] | %12
 [GB][FA][EG][DF] [CE]2 [Ee]>[Ed] | cccc [Ec]2 [EA][Ec] |[M:9/8] [=DB][Dc][DB] [Dc] B2- BEE | %15
[M:4/4] [Ec][Ec][Ec][DB] [DB][CA][DG][EA] |[M:9/8] [EB][EB][EA] Bce- e<ff |[M:4/4] ecBA c2 B2 | %18
[M:3/4] [CA]6 |] %19
V:2
 z4 z2 [A,,E,][A,,E,] | [A,,A,]2 [A,,E,]2 [A,,A,]4 | %2
 [D,F,D][D,F,D][D,F,D][D,A,D] [A,,A,]2 [A,,A,][C,A,] | [E,G,E]3 [E,G,E] [E,B,E]2 [E,G,]2 | %4
[M:3/4] [A,E]6 |[M:1/4] [A,,E,A,][A,,E,] |[M:4/4] [A,,A,]2 [A,,E,]2 [A,,A,]4 | %7
 [D,F,D][D,F,D][D,F,D][D,A,D] [A,,A,]2 [C,A,][A,,A,] | [B,,G,]3 [B,,G,] [B,,A,]2 [B,,B,]2 | %9
[M:3/4] [E,B,]6 |[M:1/4] [E,B,]>[E,G,] | %11
[M:4/4] [A,,A,][A,,A,][A,,A,][A,,A,] [A,,A,]2 [C,A,][A,,A,] | %12
 [D,A,][D,A,][D,A,][D,A,] [A,,A,]2 [A,,C]>[A,,B,] | [A,E][A,E][A,E][A,E] [A,,A,]2 [C,A,][A,,A,] | %14
[M:9/8] [B,,A,][B,,A,][B,,A,] [B,,A,] [E,G,E]2- [E,G,E][E,G,][E,G,] | %15
[M:4/4] [A,,A,][A,,A,][A,,A,][A,,A,] [A,,A,][A,,A,][B,,E,][C,A,] | %16
[M:9/8] [E,G,][D,G,][C,A,] [E,G,E][K:treble][A,E][A,CA]- [A,CA]<[A,DA][A,DA] | %17
[M:4/4] [A,CA][K:bass][A,E][F,A,=D][F,A,D] [E,A,E]2 [E,G,_D]2 |[M:3/4] [A,,A,]6 |] %19

